X:1
T:The Love of Jesus (Mitchell)
T:The Love of Jesus (Mitchell)
T:Lorenzo Briggs Mitchell
T:Lorenzo Briggs Mitchell, 1903
T:Public Domain Courtesy of the Cyber Hymnal™
C:Lorenzo Briggs Mitchell
Z:Public Domain
Z:Courtesy of the Cyber Hymnal™
%%score ( 1 2 ) ( 3 4 )
L:1/8
Q:1/4=105
M:6/8
K:Ab
V:1 treble 
V:2 treble 
V:3 bass 
V:4 bass 
V:1
 [CE]2 [CE] ([DF][CE])[=B,=D] | (E2 A) [EB]2 z | [CA]2 [CA] (cB)[_DA] | [EB]3- [EB]2 z | %4
w: 1.~’Tis the love * of|Je- * sus|cheers our hearts * to-|day, *|
w: 2.~’Tis the love * of|Je- * sus|light- ens ev- * ery|task, *|
w: 3.~’Tis the love * of|Je- * sus|makes our path- * way|bright, *|
w: 4.~Bless- èd love * of|Je- * sus,|free- ly to * us|giv’n, *|
 [CE]2 [CE] ([DF][CE])[=B,=D] | (E2 A) [Ec]2 z | [Fd]2 [FB] [DF]2 [DG] | [CA]3- [CA]2 z || %8
w: Makes our earth * an|E- * den,|drives the clouds a-|way. *|
w: Gives us strength * and|com- * fort,|more than we can|ask. *|
w: Fills our hearts * with|sing- * ing,|and our lives with|light. *|
w: Theme of all * the|ag- * es,|sweet- est song of|Heav’n. *|
"^Refrain" [Ec]3 [CA]3 | [Fd]3 [Ec]3 | [=Dc]2 [DB] [DA]2 [DF] | [Dc]2 [DB] (G2 E) | [Ec]3 [CA]3 | %13
w: |||||
w: Love of|Je- sus,|love un- bound- ed,|love so free, *|Sweet- est|
w: |||||
w: |||||
 [Fd]3 [Ec]3 | [DF]2 [FB] [EA]2 [DG] | [CA]3- [CA]2 |] %16
w: |||
w: sto- ry|ev- er told to|me! *|
w: |||
w: |||
V:2
 x6 | C3 x3 | x3 =D2 x | x6 | x6 | C3 x3 | x6 | x6 || x6 | x6 | x6 | x3 D3 | x6 | x6 | x6 | x5 |] %16
V:3
 [A,,A,]2 [A,,A,] [A,,A,]2 [A,,A,] | [A,,A,]3 [A,,A,]2 z | A,2 A, [F,A,]2 [B,,A,] | %3
 [E,G,]3- [E,G,]2 z | [A,,A,]2 [A,,A,] [A,,A,]2 [A,,A,] | [A,,A,]3 [A,,A,]2 z | %6
 [D,A,]2 [D,A,] [E,G,]2 [E,B,] | [A,,A,]3- [A,,A,]2 z || [A,,A,]3 [A,,A,]3 | [A,,A,]3 [A,,A,]3 | %10
 [F,A,]2 [F,A,] [B,,B,]2 [B,,A,] | [E,G,]2 [E,G,] [E,G,]3 | [A,,A,]3 [A,,A,]3 | [A,,A,]3 [A,,A,]3 | %14
 [D,A,]2 [B,,D] [E,C]2 [E,B,] | [A,,A,]3- [A,,A,]2 |] %16
V:4
 x6 | x6 | A,2 A, x3 | x6 | x6 | x6 | x6 | x6 || x6 | x6 | x6 | x6 | x6 | x6 | x6 | x5 |] %16

